public/icons/home.svg

<svg width="24" height="24" viewBox="0 0 24 24" fill="none" xmlns="http://www.w3.org/2000/svg">
<path d="M22.1835 11.8359L12.5296 2.18907C12.4601 2.11942 12.3776 2.06417 12.2867 2.02647C12.1958 1.98877 12.0983 1.96936 11.9999 1.96936C11.9015 1.96936 11.8041 1.98877 11.7132 2.02647C11.6223 2.06417 11.5398 2.11942 11.4703 2.18907L1.81636 11.8359C1.53511 12.1172 1.37573 12.4992 1.37573 12.8977C1.37573 13.725 2.04839 14.3977 2.87573 14.3977H3.89292V21.2813C3.89292 21.6961 4.22807 22.0313 4.64292 22.0313H10.4999V16.7813H13.1249V22.0313H19.357C19.7718 22.0313 20.107 21.6961 20.107 21.2813V14.3977H21.1242C21.5226 14.3977 21.9046 14.2406 22.1859 13.957C22.7695 13.3711 22.7695 12.4219 22.1835 11.8359Z" fill="black"/>
</svg>

<svg xmlns="http://www.w3.org/2000/svg" width="24" height="24" fill="none"><path d="M22.183 11.836 12.53 2.189a.748.748 0 0 0-1.06 0l-9.654 9.647a1.501 1.501 0 0 0 1.06 2.562h1.017v6.883c0 .415.335.75.75.75H10.5v-5.25h2.625v5.25h6.232a.75.75 0 0 0 .75-.75v-6.883h1.017a1.502 1.502 0 0 0 1.06-2.562Z"/></svg>
